X: 1324
T: Kızılcıklar Oldu mu
C: Nimet Çubukoğlu
O: Turkey
F: http://compmusic.upf.edu/node/140
N: ussak--turku--aksak--kizilciklar_oldu--edirne-kesan
N: makam= ussak
N: form= turku
N: usul= aksak = 9/8
M: 9/8
L: 1/16
K: C _2/4B   
Q: 1/4=222
%%MIDI tuningsystem comma53
d2e2 e2e2 e3d d4 c2 | d2 e2e2 e2e3dd2 c2e2  | \
w:  Kı zıl cık lar_ ol *  du  mu    |  Se le le re  dol *  du   | 
d16 z2 | d2 e2e2 e2e3dd4c2  | 
w:  mu    |  Yol la dı ğım  ço *  rap lar_    | 
e2{f}ed d2d2 d4 d4 e2 | c3dd2 c2B2 A2A4B2  | \
w:  A *  ya *  ğı na  ol du  mu    |  Men *  di li  ge li ne    | 
c2d2 d2c2 B2A2 A6 | 
w:  Men dil  ver dim_ e li ne    | 
c2 d2d2 d2d2 e2c4B2  | A2B2 c2d2 d4 cdB3A | \
w:  Ka ra  kı na  yol *  la mış    |  Yâr  be nim_ el le ri  | 
A16z2  | c3d d2c2 B2A2 A4 B2 | 
w:  me    |  Men *  di li  ge li ne    | 
c2 d2d2 c2B2 A2A6  | c2d2 d2d2 d2e2 c4 B2 | \
w:  Men dil  ver dim_ e li ne    |  Ka ra  kı na  yol *  la mış    | 
A2 B2c2 d2d4cd B3A  | 
w:  Yâr  be nim_ el le ri  | 
A16 z2 | d2 e2e2 e2e3dd4c2  | d2e2 e2e2 e3d d2c2 e2 | \
w:  me    |  Kı zıl cık lar_ ol *  du  mu    |  Se le le re  dol *  du   | 
d16z2  | 
w:  mu    | 
d2e2 e2e2 e3d d4 c2 | e2 {f}edd2 d2d4d4e2  | \
w:  Yol la dı ğım  ço *  rap lar_    |  A *  ya *  ğı na  ol du  mu    | 
c3d d2c2 B2A2 A4 B2 | 
w:  Men *  di li  ge li ne    | 
c2 d2d2 c2B2 A2A6  | c2d2 d2d2 d2e2 c4 B2 | \
w:  Men dil  ver dim_ e li ne    |  Ka ra  kı na  yol *  la mış    | 
A2 B2c2 d2d4cd B3A  | 
w:  Yâr  be nim_ el le ri  | 
A16 z2 | c3dd2 c2B2 A2A4B2  | c2d2 d2c2 B2A2 A6 | \
w:  me    |  Men *  di li  ge li ne    |  Men dil  ver dim_ e li ne    | 
c2 d2d2 d2d2 e2c4B2  | 
w:  Ka ra  kı na  yol *  la mış    | 
A2B2 c2d2 d4 cdB3A | A16z2  | |


